!!!COM: Corelli, Arcangelo
!!!OPR: Sonata da camera
!!!OPS: 4
!!!ONM: 6
!!!OMV: 7
!!!OTL: Giga
!!!OMD: Allegro
**kern	**fb	**kern	**kern
*part3	*part3	*part2	*part1
*staff3	*	*staff2	*staff1
*I"Violone & Cembalo	*	*I"Violino II	*I"Violino I
*clefF4	*	*clefG2	*clefG2
*k[f#c#g#]	*	*k[f#c#g#]	*k[f#c#g#]
*E:	*	*E:	*E:
*M12/8	*	*M12/8	*M12/8
*MM192	*	*MM192	*MM192
=1	=1	=1	=1
4.E	.	4.gg#	4.bb
8r	.	8r	8r
8r	.	8r	8r
8E	.	8gg#	8bb
4.E	.	(8gg#L	(8bbL
.	.	8ee)	8gg#)
.	.	8ff#J	8aaJ
4.EE	.	(8gg#L	(8bbL
.	.	8ee)	8gg#)
.	.	8gg#J	8bbJ
=2	=2	=2	=2
4.F#	#6\	4.ff#	4.aa
8r	.	8r	8r
8r	.	8r	8r
8F#	.	8ff#	8aa
4.F#	#6\	(8ff#L	(8aaL
.	.	8dd#X)	8ff#)
.	.	8eeJ	8gg#J
4.FF#	.	(8ff#L	(8aaL
.	.	8dd#)	8ff#)
.	.	8ff#J	8aaJ
=3	=3	=3	=3
4.G#	6	4.ee	4.gg#
8r	.	8r	8r
8r	.	8r	8r
8G#	.	8ee	8gg#
4.G#	6	(8eeL	(8gg#L
.	.	8cc#)	8ee)
.	.	8dd#XJ	8ff#J
4.A	7	(8eeL	(8gg#L
.	.	8cc#)	8ee)
.	.	8eeJ	8gg#J
=4	=4	=4	=4
4.B	#	4.dd#X	4.ff#
8r	.	8r	4.bb
8r	.	8r	.
8B	.	8dd#	.
4.c#	7	8eeL	8bbL
.	.	8dd#	8aa
.	.	8eeJ	8gg#J
4.d#X	5	8ff#L	[4.aa
.	.	8ee	.
.	.	8ff#J	.
=5	=5	=5	=5
4.e	5 4	4.b	8aaL]
.	.	.	8gg#
.	.	.	8ff#J
4.G#	6	[4.ee	(8gg#L
.	.	.	8aa)
.	.	.	8gg#J
4.A	6 5	4.ee]	(8ff#L
.	.	.	8gg#)
.	.	.	8aaJ
4.B	#	4.dd#X	4.ff#
=6	=6	=6	=6
4.E	.	4.ee	4.ee
2.e	5 3	8r	8r
.	.	8r	8r
.	.	8ee	8gg#
.	4 2	4.ff#	(8aaL
.	.	.	8gg#)
.	.	.	8aaJ
4.d#X	6	4.ff#	(8ff#L
.	.	.	8bb)
.	.	.	8ff#J
=7	=7	=7	=7
4.e	.	4.b	(8gg#L
.	.	.	8bb)
.	.	.	8gg#J
*B:	*	*B:	*B:
2.B	5 #	8r	(8ff#L
.	.	8r	8bb)
.	.	8b	8ff#J
.	4 2	4.cc#	(8eeL
.	.	.	8ff#)
.	.	.	8gg#J
4.A#X	6	4.cc#	(8ff#L
.	.	.	8gg#)
.	.	.	8eeJ
=8	=8	=8	=8
4.B	#	4.f#	(8dd#XL
.	.	.	8ee)
.	.	.	8ff#J
4.D#X	6	8r	(8ff#L
.	.	8r	8gg#)
.	.	8ff#	8ff#J
4.G#	7	4.b	(8ff#L
.	.	.	8b)
.	.	.	8eeJ
4.C#	7	8r	(8eeL
.	.	8r	8ff#)
.	.	8gg#	8eeJ
=9	=9	=9	=9
4.F#	7 #	4.a#X	(8eeL
.	.	.	8ff#)
.	.	.	8eeJ
4.BB	#7\ #	8r	(8dd#XL
.	.	8r	8ff#)
.	.	8b	8bbJ
4.E	7	8bL	(8gg#L
.	.	8cc#	8aa#X)
.	.	8bJ	8bbJ
4.F#	#	4a#	8cc#L
.	.	.	8bb
.	.	8ff#	8aa#J
=10	=10	=10	=10
4.BB	#	4.dd#X	4.b
4.G#	6	8r	[4.bb
.	.	8r	.
.	.	8r	.
4.c#	7	[4.ee	8bbL]
.	.	.	8aa
.	.	.	8gg#J
4.F#	7	8eeL]	[4.aa
.	.	8dd#	.
.	.	8cc#J	.
=11	=11	=11	=11
4.B	7 #	4.dd#X	8aaL]
.	.	.	8gg#
.	.	.	8ff#J
4.E	#7\	8dd#L	4.gg#
.	.	8cc#	.
.	.	8bJ	.
4.A	7	4.cc#	8gg#L
.	.	.	8aa
.	.	.	8gg#J
*E:	*	*E:	*E:
4.AA	6	[4.aa	(8ff#L
.	.	.	8gg#)
.	.	.	8eeJ
=12	=12	=12	=12
4.BB	7 #	4.aa]	8dd#XL
.	.	.	8cc#
.	.	.	8bJ
4.C#	5	4.gg#	4ee
.	.	.	8ee
4.AA	6 5	2.ff#	4.ee
4.BB	5 4	.	4ee
.	#	.	8dd#
=13	=13	=13	=13
4.E	.	4.ee	4.ee
2.AA	5 3	8r	4.cc#
.	.	8r	.
.	.	8e	.
.	#4\ 2	4.f#	4.d#X
4.GG#	6	8r	[4.e
.	.	8r	.
.	.	8b	.
=14	=14	=14	=14
4.AA	6 5	(8aL	4.e]
.	.	8b)	.
.	.	8g#J	.
4.BB	#	4f#	4.d#X
.	.	8b	.
2.EE	.	2.g#	2.e
=15:|!|:	=15:|!|:	=15:|!|:	=15:|!|:
*c#:	*	*c#:	*c#:
4.B#X	6	2.gg#	(8dd#XL
.	.	.	8cc#)
.	.	.	8dd#J
4.G#	#	.	(8gg#L
.	.	.	8ff#)
.	.	.	8gg#J
4.c#	5	[2.gg#	(8eeL
.	.	.	8dd#)
.	.	.	8cc#J
4.C#	.	.	(8eeL
.	.	.	8dd#)
.	.	.	8cc#J
=16	=16	=16	=16
4.BB#X	6	2.gg#_	(8dd#XL
.	.	.	8cc#)
.	.	.	8dd#J
4.GG#	#	.	(8gg#L
.	.	.	8ff#)
.	.	.	8gg#J
2.C#	5	2.gg#]	2.ee
=17	=17	=17	=17
*B:	*	*B:	*B:
4.A#X	6	2.ff#	(8cc#L
.	.	.	8b)
.	.	.	8cc#J
4.F#	#	.	(8ff#L
.	.	.	8ee)
.	.	.	8ff#J
4.B	#	[2.ff#T	(8dd#XL
.	.	.	8cc#)
.	.	.	8bJ
4.BB	#	.	(8dd#L
.	.	.	8cc#)
.	.	.	8bJ
=18	=18	=18	=18
4.AA#X	6	2.ff#_	(8cc#L
.	.	.	8b)
.	.	.	8cc#J
4.FF#	#	.	(8ff#L
.	.	.	8ee)
.	.	.	8ff#J
2.BB	#	2.ff#]	2.dd#X
=19	=19	=19	=19
4.D#X	6	4.b	(8ff#L
.	.	.	8ee)
.	.	.	8ff#J
4.E	.	2.ee	(8gg#L
.	.	.	8ff#)
.	.	.	8gg#J
4.F#	7 #	.	4.a#X
4.BB	#	4.dd#X	[4.b
=20	=20	=20	=20
2.FF#	5 4	2.cc#	4.b]
.	#	.	4.a#X
2.BB	#	2.b	2.b
=21	=21	=21	=21
*c#:	*	*c#:	*c#:
4.E	6	4.cc#	(8gg#L
.	.	.	8ff#)
.	.	.	8gg#J
4.F#	.	2.ff#	(8aaL
.	.	.	8gg#)
.	.	.	8aaJ
4.G#	7 #	.	4.b#X
4.C#	.	4.ee	[4.cc#
=22	=22	=22	=22
2.GG#	5 4	2.dd#X	4.cc#]
.	#	.	4.b#X
2.C#	n	2.cc#	(8cc#L
.	.	.	8dd#X)
.	.	.	8eeJ
.	.	.	(8cc#L
.	.	.	8dd#)
.	.	.	8eeJ
=23	=23	=23	=23
*b:	*	*b:	*b:
4.A#X	5	4.cc#	2.ee
4.F#	7 #	4.a#X	.
2.B	n	2.f#	(8ddL
.	.	.	8b)
.	.	.	8cc#J
.	.	.	(8ddL
.	.	.	8b)
.	.	.	8cc#J
=24	=24	=24	=24
*A:	*	*A:	*A:
4.G#	n5	4.b	2.dd
4.E	7	4.g#	.
2.A	.	2.e	(8cc#L
.	.	.	8a)
.	.	.	8bJ
.	.	.	(8cc#L
.	.	.	8a)
.	.	.	8bJ
=25	=25	=25	=25
*E:	*	*E:	*E:
4.D#X	6	4.ff#	[4.b
4.BB	#	4.dd#X	4b]
.	.	.	8a
2.E	.	2.b	(8g#L
.	.	.	8a)
.	.	.	8bJ
.	.	.	(8g#L
.	.	.	8a)
.	.	.	8bJ
=26	=26	=26	=26
4.D#X	6	(8bL	4.f#
.	.	8cc#)	.
.	.	8dd#XJ	.
4.G#	7	(8bL	2.b
.	.	8cc#)	.
.	.	8dd#J	.
4.C#	7	(8eL	.
.	.	8f#)	.
.	.	8g#J	.
4.F#	7	(8aL	[4.a
.	.	8b)	.
.	.	8cc#J	.
=27	=27	=27	=27
4.BB	7 #	4.d#X	4.a]
4.E	.	2.e	4.g#
4.AA	6 5	.	[4.f#
4.BB	#	4.d#	4f#]
.	.	.	8b
=28	=28	=28	=28
2.E	.	2.e	(8g#L
.	.	.	8a)
.	.	.	8bJ
.	.	.	(8g#L
.	.	.	8a)
.	.	.	8bJ
4.D#X	6	(8bL	4.f#
.	.	8cc#)	.
.	.	8dd#XJ	.
4.G#	7	(8bL	[4.b
.	.	8cc#)	.
.	.	8dd#J	.
=29	=29	=29	=29
4.C#	7	(8eL	4.b]
.	.	8f#)	.
.	.	8g#J	.
4.F#	7	(8aL	2.a
.	.	8b)	.
.	.	8cc#J	.
4.BB	7 #	4.d#X	.
4.E	7 #	[4.e	4.g#
=30	=30	=30	=30
4.AA	6 5	4.e]	[4.f#
4.BB	#	4.d#X	4f#]
.	.	.	8b
2.EE	.	2.e	2.g#
==	==	==	==
*-	*-	*-	*-
!!!system-decoration: [{s1,s2},s3]